src/assets/img/sex/unknown.svg

<?xml version="1.0" encoding="UTF-8" standalone="no"?>
<svg
   height="23.449999"
   width="23.451576"
   version="1.1"
   id="svg1072"
   sodipodi:docname="unknown.svg"
   inkscape:version="1.1 (c4e8f9ed74, 2021-05-24)"
   xmlns:inkscape="http://www.inkscape.org/namespaces/inkscape"
   xmlns:sodipodi="http://sodipodi.sourceforge.net/DTD/sodipodi-0.dtd"
   xmlns:xlink="http://www.w3.org/1999/xlink"
   xmlns="http://www.w3.org/2000/svg"
   xmlns:svg="http://www.w3.org/2000/svg">
  <sodipodi:namedview
     id="namedview1074"
     pagecolor="#505050"
     bordercolor="#eeeeee"
     borderopacity="1"
     inkscape:pageshadow="0"
     inkscape:pageopacity="0"
     inkscape:pagecheckerboard="0"
     showgrid="false"
     inkscape:zoom="13.9981"
     inkscape:cx="34.826154"
     inkscape:cy="18.788264"
     inkscape:current-layer="svg1072" />
  <g
     transform="translate(40.001576,12.999999)"
     id="g1051">
    <use
       height="23.450001"
       transform="translate(-40,-13)"
       width="23.450001"
       xlink:href="#sprite0"
       id="use1047"
       x="0"
       y="0" />
    <use
       height="10.5"
       transform="translate(-33.45,-6.5)"
       width="10.5"
       xlink:href="#shape1"
       id="use1049"
       x="0"
       y="0" />
  </g>
  <defs
     id="defs1070">
    <g
       id="sprite0"
       transform="translate(11.7,11.75)">
      <use
         height="23.450001"
         transform="translate(-11.7,-11.75)"
         width="23.450001"
         xlink:href="#shape0"
         id="use1053"
         x="0"
         y="0" />
    </g>
    <g
       id="shape0"
       transform="translate(11.7,11.75)">
      <path
         d="m -3.35,-10.25 3.4,-0.5 2.2,0.2 q 2.2,0.45 4,1.8 L 7.6,-7.6 q 3.15,3.2 3.15,7.6 0,4.45 -3.15,7.6 V 7.65 Q 4.4,10.7 0.05,10.7 l -2.4,-0.25 q -2.3,-0.5 -4.2,-1.9 l -1,-0.9 L -7.6,7.6 Q -10.75,4.45 -10.7,0.05 V -0.1 q -0.05,-2.95 1.45,-5.35 l 1.65,-2.15 0.7,-0.65 1.85,-1.25 1.7,-0.75 M 1.9,1.85 H 1.85 V 1.9 L 1.9,1.85"
         fill="#ff3399"
         fill-rule="evenodd"
         stroke="none"
         id="path1056" />
      <path
         d="m -7.6,7.6 0.05,0.05 1,0.9 q 1.9,1.4 4.2,1.9 m 8.6,-19.2 q -1.8,-1.35 -4,-1.8"
         fill="none"
         stroke="#ff3399"
         stroke-linecap="round"
         stroke-linejoin="round"
         stroke-width="2"
         id="path1058" />
      <path
         d="m -2.35,10.45 2.4,0.25 Q 4.4,10.7 7.6,7.65 V 7.6 Q 10.75,4.45 10.75,0 10.75,-4.4 7.6,-7.6 L 6.25,-8.75"
         fill="none"
         stroke="#cc0066"
         stroke-linecap="round"
         stroke-linejoin="round"
         stroke-width="2"
         id="path1060" />
      <path
         d="m 2.25,-10.55 -2.2,-0.2 -3.4,0.5 m -1.7,0.75 -1.85,1.25 m -2.35,2.8 q -1.5,2.4 -1.45,5.35 v 0.15 q -0.05,4.4 3.1,7.55"
         fill="none"
         stroke="#ff99cc"
         stroke-linecap="round"
         stroke-linejoin="round"
         stroke-width="2"
         id="path1062" />
      <path
         d="m -3.35,-10.25 -1.7,0.75 m -1.85,1.25 -0.7,0.65 -1.65,2.15"
         fill="none"
         stroke="#ffffff"
         stroke-linecap="round"
         stroke-linejoin="round"
         stroke-width="2"
         id="path1064" />
    </g>
    <g
       id="shape1"
       transform="translate(33.45,6.5)">
      <path
         d="m -24.05,-1.25 q 0.05,1.75 -1.2,3 -1.2,1.2 -2.95,1.15 -1.8,0 -3,-1.2 -1.2,-1.2 -1.15,-2.95 -0.05,-1.75 1.15,-2.95 1.25,-1.25 3,-1.2 1.75,-0.05 2.95,1.15 1.2,1.2 1.2,3 z"
         fill="none"
         stroke="#ffffff"
         stroke-linecap="round"
         stroke-linejoin="round"
         stroke-width="2.25"
         id="path1067" />
    </g>
  </defs>
</svg>

<?xml version="1.0" encoding="UTF-8" standalone="no"?>
<svg xmlns:xlink="http://www.w3.org/1999/xlink" height="37.6px" width="105.3px" xmlns="http://www.w3.org/2000/svg">
  <g transform="matrix(1.0, 0.0, 0.0, 1.0, 40.05, 13.0)">
    <use height="23.45" transform="matrix(1.0, 0.0, 0.0, 1.0, -40.0, -13.0)" width="23.45" xlink:href="#sprite0"/>
    <use height="10.5" transform="matrix(1.0, 0.0, 0.0, 1.0, -33.45, -6.5)" width="10.5" xlink:href="#shape1"/>
  </g>
  <defs>
    <g id="sprite0" transform="matrix(1.0, 0.0, 0.0, 1.0, 11.7, 11.75)">
      <use height="23.45" transform="matrix(1.0, 0.0, 0.0, 1.0, -11.7, -11.75)" width="23.45" xlink:href="#shape0"/>
    </g>
    <g id="shape0" transform="matrix(1.0, 0.0, 0.0, 1.0, 11.7, 11.75)">
      <path d="M-3.35 -10.25 L0.05 -10.75 2.25 -10.55 Q4.45 -10.1 6.25 -8.75 L7.6 -7.6 Q10.75 -4.4 10.75 0.0 10.75 4.45 7.6 7.6 L7.6 7.65 Q4.4 10.7 0.05 10.7 L-2.35 10.45 Q-4.65 9.95 -6.55 8.55 L-7.55 7.65 -7.6 7.6 Q-10.75 4.45 -10.7 0.05 L-10.7 -0.1 Q-10.75 -3.05 -9.25 -5.45 L-7.6 -7.6 -6.9 -8.25 -5.05 -9.5 -3.35 -10.25 M1.9 1.85 L1.85 1.85 1.85 1.9 1.9 1.85" fill="#ff3399" fill-rule="evenodd" stroke="none"/>
      <path d="M-7.6 7.6 L-7.55 7.65 -6.55 8.55 Q-4.65 9.95 -2.35 10.45 M6.25 -8.75 Q4.45 -10.1 2.25 -10.55" fill="none" stroke="#ff3399" stroke-linecap="round" stroke-linejoin="round" stroke-width="2.0"/>
      <path d="M-2.35 10.45 L0.05 10.7 Q4.4 10.7 7.6 7.65 L7.6 7.6 Q10.75 4.45 10.75 0.0 10.75 -4.4 7.6 -7.6 L6.25 -8.75" fill="none" stroke="#cc0066" stroke-linecap="round" stroke-linejoin="round" stroke-width="2.0"/>
      <path d="M2.25 -10.55 L0.05 -10.75 -3.35 -10.25 M-5.05 -9.5 L-6.9 -8.25 M-9.25 -5.45 Q-10.75 -3.05 -10.7 -0.1 L-10.7 0.05 Q-10.75 4.45 -7.6 7.6" fill="none" stroke="#ff99cc" stroke-linecap="round" stroke-linejoin="round" stroke-width="2.0"/>
      <path d="M-3.35 -10.25 L-5.05 -9.5 M-6.9 -8.25 L-7.6 -7.6 -9.25 -5.45" fill="none" stroke="#ffffff" stroke-linecap="round" stroke-linejoin="round" stroke-width="2.0"/>
    </g>
    <g id="shape1" transform="matrix(1.0, 0.0, 0.0, 1.0, 33.45, 6.5)">
      <path d="M-24.05 -1.25 Q-24.0 0.5 -25.25 1.75 -26.45 2.95 -28.2 2.9 -30.0 2.9 -31.2 1.7 -32.4 0.5 -32.35 -1.25 -32.4 -3.0 -31.2 -4.2 -29.95 -5.45 -28.2 -5.4 -26.45 -5.45 -25.25 -4.25 -24.05 -3.05 -24.05 -1.25 Z" fill="none" stroke="#ffffff" stroke-linecap="round" stroke-linejoin="round" stroke-width="2.25"/>
    </g>
  </defs>
</svg>
